24x24/apps/org.gnome.IconPreview.svg

<svg height="24" width="24" xmlns="http://www.w3.org/2000/svg"><path d="m3.429 4.5c-.792 0-1.429.672-1.429 1.508v11.984c0 .836.637 1.508 1.429 1.508h17.141c.792 0 1.429-.672 1.429-1.508v-11.984c0-.836-.637-1.509-1.429-1.508h-8.57z" opacity=".2"/><path d="m3.429 4c-.792 0-1.429.672-1.429 1.508v11.984c0 .836.637 1.508 1.429 1.508h8.621v-15z" fill="#f4f4f7"/><path d="m3.429 4c-.792 0-1.429.672-1.429 1.508v.5c0-.836.637-1.508 1.429-1.508h8.62v-.5z" fill="#f4f4f7" opacity=".2"/><path d="m12 4v15h8.571c.792 0 1.429-.673 1.429-1.508v-11.984c0-.835-.637-1.508-1.429-1.508z" fill="#51495d"/><circle cx="18.5" cy="12" opacity=".2" r="4.5"/><circle cx="18.5" cy="11.5" fill="#f4f4f7" r="4.5"/><circle cx="18.5" cy="11.5" fill="#3ea5e6" r="2.5"/><path d="m12 4v.5h8.571c.792 0 1.429.672 1.429 1.508v-.5c0-.836-.637-1.509-1.429-1.508z" fill="#f4f4f7" opacity=".1"/><path d="m18.5 9a2.5 2.5 0 0 0 -2.5 2.5 2.5 2.5 0 0 0 .014.238 2.5 2.5 0 0 1 2.486-2.238 2.5 2.5 0 0 1 2.486 2.262 2.5 2.5 0 0 0 .014-.262 2.5 2.5 0 0 0 -2.5-2.5z" opacity=".2"/></svg>

<svg xmlns="http://www.w3.org/2000/svg" width="24" height="24"><path style="opacity:.2" d="M3.429 4.5C2.637 4.5 2 5.172 2 6.008v11.984c0 .836.637 1.508 1.429 1.508H20.57c.792 0 1.429-.672 1.429-1.508V6.008c0-.836-.637-1.509-1.429-1.508H12z"/><path style="fill:#f4f4f7" d="M3.429 4C2.637 4 2 4.672 2 5.508v11.984C2 18.328 2.637 19 3.429 19h8.621V4z"/><path style="opacity:.2;fill:#f4f4f7" d="M3.429 4C2.637 4 2 4.672 2 5.508v.5C2 5.172 2.637 4.5 3.429 4.5h8.62V4z"/><path style="fill:#51495d" d="M12 4v15h8.571c.792 0 1.429-.673 1.429-1.508V5.508C22 4.673 21.363 4 20.571 4z"/><circle style="opacity:.2" cx="18.5" cy="12" r="4.5"/><circle style="fill:#f4f4f7" cx="18.5" cy="11.5" r="4.5"/><circle style="fill:#3ea5e6" cx="18.5" cy="11.5" r="2.5"/><path style="opacity:.1;fill:#f4f4f7" d="M12 4v.5h8.571c.792 0 1.429.672 1.429 1.508v-.5c0-.836-.637-1.509-1.429-1.508z"/><path style="opacity:.2" d="M18.5 9a2.5 2.5 0 0 0-2.5 2.5 2.5 2.5 0 0 0 .014.238A2.5 2.5 0 0 1 18.5 9.5a2.5 2.5 0 0 1 2.486 2.262A2.5 2.5 0 0 0 21 11.5 2.5 2.5 0 0 0 18.5 9z"/></svg>
